localPackages/DesignSystem/Sources/DesignSystem/Resources/Assets.xcassets/IconSet/ic-buildings.imageset/ic-buildings.svg

<svg width="24" height="24" viewBox="0 0 24 24" fill="none" xmlns="http://www.w3.org/2000/svg">
<g id="ic-buildings">
<path id="Icon" fill-rule="evenodd" clip-rule="evenodd" d="M12 4.5H3V21H6V18.75C6 18.3358 6.33579 18 6.75 18H8.25C8.66421 18 9 18.3358 9 18.75V21H12V13.5V4.5ZM1.5 22.5H12H13.5H22.5V13.5C22.5 12.6716 21.8284 12 21 12H13.5V4.5C13.5 3.67157 12.8284 3 12 3H3C2.17157 3 1.5 3.67157 1.5 4.5V22.5ZM21 21H13.5V13.5H21V21ZM4.95 6C4.70147 6 4.5 6.20147 4.5 6.45V7.05C4.5 7.29853 4.70147 7.5 4.95 7.5H5.55C5.79853 7.5 6 7.29853 6 7.05V6.45C6 6.20147 5.79853 6 5.55 6H4.95ZM4.5 9.45C4.5 9.20147 4.70147 9 4.95 9H5.55C5.79853 9 6 9.20147 6 9.45V10.05C6 10.2985 5.79853 10.5 5.55 10.5H4.95C4.70147 10.5 4.5 10.2985 4.5 10.05V9.45ZM4.95 12C4.70147 12 4.5 12.2015 4.5 12.45V13.05C4.5 13.2985 4.70147 13.5 4.95 13.5H5.55C5.79853 13.5 6 13.2985 6 13.05V12.45C6 12.2015 5.79853 12 5.55 12H4.95ZM4.5 15.45C4.5 15.2015 4.70147 15 4.95 15H5.55C5.79853 15 6 15.2015 6 15.45V16.05C6 16.2985 5.79853 16.5 5.55 16.5H4.95C4.70147 16.5 4.5 16.2985 4.5 16.05V15.45ZM9.45 6C9.20147 6 9 6.20147 9 6.45V7.05C9 7.29853 9.20147 7.5 9.45 7.5H10.05C10.2985 7.5 10.5 7.29853 10.5 7.05V6.45C10.5 6.20147 10.2985 6 10.05 6H9.45ZM9 9.45C9 9.20147 9.20147 9 9.45 9H10.05C10.2985 9 10.5 9.20147 10.5 9.45V10.05C10.5 10.2985 10.2985 10.5 10.05 10.5H9.45C9.20147 10.5 9 10.2985 9 10.05V9.45ZM9.45 12C9.20147 12 9 12.2015 9 12.45V13.05C9 13.2985 9.20147 13.5 9.45 13.5H10.05C10.2985 13.5 10.5 13.2985 10.5 13.05V12.45C10.5 12.2015 10.2985 12 10.05 12H9.45ZM9 15.45C9 15.2015 9.20147 15 9.45 15H10.05C10.2985 15 10.5 15.2015 10.5 15.45V16.05C10.5 16.2985 10.2985 16.5 10.05 16.5H9.45C9.20147 16.5 9 16.2985 9 16.05V15.45ZM15.45 15C15.2015 15 15 15.2015 15 15.45V16.05C15 16.2985 15.2015 16.5 15.45 16.5H16.05C16.2985 16.5 16.5 16.2985 16.5 16.05V15.45C16.5 15.2015 16.2985 15 16.05 15H15.45ZM15 18.45C15 18.2015 15.2015 18 15.45 18H16.05C16.2985 18 16.5 18.2015 16.5 18.45V19.05C16.5 19.2985 16.2985 19.5 16.05 19.5H15.45C15.2015 19.5 15 19.2985 15 19.05V18.45ZM18.45 15C18.2015 15 18 15.2015 18 15.45V16.05C18 16.2985 18.2015 16.5 18.45 16.5H19.05C19.2985 16.5 19.5 16.2985 19.5 16.05V15.45C19.5 15.2015 19.2985 15 19.05 15H18.45ZM18 18.45C18 18.2015 18.2015 18 18.45 18H19.05C19.2985 18 19.5 18.2015 19.5 18.45V19.05C19.5 19.2985 19.2985 19.5 19.05 19.5H18.45C18.2015 19.5 18 19.2985 18 19.05V18.45Z" fill="#0F0F0F"/>
</g>
</svg>

<svg xmlns="http://www.w3.org/2000/svg" width="24" height="24" viewBox="0 0 24 24">
  <g class="ic-buildings">
    <path fill-rule="evenodd" d="M12 4.5H3V21h3v-2.25a.75.75 0 0 1 .75-.75h1.5a.75.75 0 0 1 .75.75V21h3V4.5Zm-10.5 18h21v-9A1.5 1.5 0 0 0 21 12h-7.5V4.5A1.5 1.5 0 0 0 12 3H3a1.5 1.5 0 0 0-1.5 1.5v18ZM21 21h-7.5v-7.5H21V21ZM4.95 6a.45.45 0 0 0-.45.45v.6c0 .249.201.45.45.45h.6A.45.45 0 0 0 6 7.05v-.6A.45.45 0 0 0 5.55 6h-.6ZM4.5 9.45A.45.45 0 0 1 4.95 9h.6a.45.45 0 0 1 .45.45v.6a.45.45 0 0 1-.45.45h-.6a.45.45 0 0 1-.45-.45v-.6ZM4.95 12a.45.45 0 0 0-.45.45v.6c0 .248.201.45.45.45h.6a.45.45 0 0 0 .45-.45v-.6a.45.45 0 0 0-.45-.45h-.6Zm-.45 3.45a.45.45 0 0 1 .45-.45h.6a.45.45 0 0 1 .45.45v.6a.45.45 0 0 1-.45.45h-.6a.45.45 0 0 1-.45-.45v-.6ZM9.45 6a.45.45 0 0 0-.45.45v.6c0 .249.201.45.45.45h.6a.45.45 0 0 0 .45-.45v-.6a.45.45 0 0 0-.45-.45h-.6ZM9 9.45A.45.45 0 0 1 9.45 9h.6a.45.45 0 0 1 .45.45v.6a.45.45 0 0 1-.45.45h-.6a.45.45 0 0 1-.45-.45v-.6ZM9.45 12a.45.45 0 0 0-.45.45v.6c0 .248.201.45.45.45h.6a.45.45 0 0 0 .45-.45v-.6a.45.45 0 0 0-.45-.45h-.6ZM9 15.45a.45.45 0 0 1 .45-.45h.6a.45.45 0 0 1 .45.45v.6a.45.45 0 0 1-.45.45h-.6a.45.45 0 0 1-.45-.45v-.6Zm6.45-.45a.45.45 0 0 0-.45.45v.6c0 .248.201.45.45.45h.6a.45.45 0 0 0 .45-.45v-.6a.45.45 0 0 0-.45-.45h-.6ZM15 18.45a.45.45 0 0 1 .45-.45h.6a.45.45 0 0 1 .45.45v.6a.45.45 0 0 1-.45.45h-.6a.45.45 0 0 1-.45-.45v-.6ZM18.45 15a.45.45 0 0 0-.45.45v.6c0 .248.201.45.45.45h.6a.45.45 0 0 0 .45-.45v-.6a.45.45 0 0 0-.45-.45h-.6ZM18 18.45a.45.45 0 0 1 .45-.45h.6a.45.45 0 0 1 .45.45v.6a.45.45 0 0 1-.45.45h-.6a.45.45 0 0 1-.45-.45v-.6Z" class="Icon"/>
  </g>
</svg>
